X:1
T:Manitoba, 87.87 D
T:Manitoba, 87.87 D
T:George Washburn Lyon (1825-1894)
T:Public Domain Courtesy of the Cyber Hymnal™
C:George Washburn Lyon (1825-1894)
Z:Public Domain
Z:Courtesy of the Cyber Hymnal™
%%score ( 1 2 ) ( 3 4 )
L:1/8
Q:1/4=95
M:3/4
K:G
V:1 treble 
V:2 treble 
V:3 bass 
V:4 bass 
V:1
 [B,G]>[CA] | [DB]2 [Dd]2 [Dc]>[DB] | [CA]2 [CE]2 [A,F]>[B,G] | [DA]3 D [CG]>[DA] | %4
 [DB]4 [B,G]>[CA] | [DB]2 [Dd]2 [Dc]>[DB] | [CA]2 [CE]2 [A,F]>[B,G] | [DA]3 [Dc] [DB]>[DA] | %8
 [DG]4 [GB]>[Gc] | [Gd]3 [GB] [Ge]>[Gd] | [Fc]2 [FA]2 [FA]>[GB] | [Ac]3 [FA] [Bd]>[Ac] | %12
 [GB]4 [B,G]>[CA] | [DB]2 [Dd]2 [Dc]>[DB] | [CA]2 [CE]2 [A,F]>[B,G] | [DA]3 [Dc] [DB]>[DA] | %16
 [DG]4 |] %17
V:2
 x2 | x6 | x6 | x3 D x2 | x6 | x6 | x6 | x6 | x6 | x6 | x6 | x6 | x6 | x6 | x6 | x6 | x4 |] %17
V:3
 G,>G, | G,2 [G,,B,]2 [A,,A,]>[B,,G,] | [C,E,]2 [C,G,]2 D,>[D,G,] | [D,F,]3 [D,F,] E,>[D,F,] | %4
 G,4 G,>G, | G,2 [G,,B,]2 [A,,A,]>[B,,G,] | [C,E,]2 [C,G,]2 D,>[D,G,] | %7
 [D,F,]3 [D,A,] [D,D]>[D,C] | [G,,B,]4 G,>[G,A,] | [G,B,]3 G, [G,C]>[G,B,] | %10
 [D,A,]2 [D,D]2 [D,D]>[D,D] | [D,D]3 [D,D] [D,D]>[D,D] | [G,D]4 G,>G, | %13
 G,2 [G,,B,]2 [A,,A,]>[B,,G,] | [C,E,]2 [C,G,]2 D,>[D,G,] | [D,F,]3 [D,A,] [D,D]>[D,C] | %16
 [G,,B,]4 |] %17
V:4
 G,>G, | G,2 x4 | x4 D,3/2 x/ | x4 E,3/2 x/ | G,4 G,>G, | G,2 x4 | x4 D,3/2 x/ | x6 | x4 G,3/2 x/ | %9
 x3 G, x2 | x6 | x6 | x4 G,>G, | G,2 x4 | x4 D,3/2 x/ | x6 | x4 |] %17

